public/assets/img/tech-logo/html.svg

<svg width="100" height="100" viewBox="0 0 100 100" fill="none" xmlns="http://www.w3.org/2000/svg">
<g id="html5">
<g id="html5_2">
<path id="Vector" d="M14.0214 90.0345L6 0.000488281H94.1867L86.1653 89.9859L50.0204 100" fill="#E44D26"/>
<path id="Vector_2" d="M50.093 92.3445V7.39062H86.1407L79.2617 84.2015" fill="#F16529"/>
<path id="Vector_3" d="M22.3831 18.4014H50.0933V29.4369H34.4881L35.509 40.7397H50.0933V51.7509H25.3972L22.3831 18.4014ZM25.8833 57.293H36.9674L37.7452 66.1165L50.0933 69.4223V80.9439L27.439 74.624" fill="#EBEBEB"/>
<path id="Vector_4" d="M77.7058 18.4014H50.0442V29.4369H76.6849L77.7058 18.4014ZM75.6883 40.7397H50.0442V51.7752H63.6562L62.368 66.1165L50.0442 69.4223V80.8953L72.6499 74.624" fill="white"/>
</g>
</g>
</svg>

<svg xmlns="http://www.w3.org/2000/svg" width="100" height="100" fill="none"><path fill="#E44D26" d="M14.021 90.035 6 0h88.187l-8.022 89.986L50.02 100"/><path fill="#F16529" d="M50.093 92.345V7.39h36.048L79.26 84.2"/><path fill="#EBEBEB" d="M22.383 18.401h27.71v11.036H34.488L35.51 40.74h14.584v11.01H25.397zm3.5 38.892h11.084l.778 8.824 12.348 3.305v11.522l-22.654-6.32"/><path fill="#fff" d="M77.706 18.401H50.044v11.036h26.64zM75.688 40.74H50.044v11.035h13.612l-1.288 14.342-12.324 3.305v11.473l22.606-6.271"/></svg>
